build/assets/images/svg/icons/lk/personal_account/pin.svg

<svg width="48" height="48" viewBox="0 0 48 48" fill="none" xmlns="http://www.w3.org/2000/svg">
<rect width="48" height="48" rx="24" fill="#F4F7FB"/>
<path fill-rule="evenodd" clip-rule="evenodd" d="M24.0002 17.4972C21.5149 17.4972 19.5002 19.5119 19.5002 21.9972C19.5002 24.4825 21.5149 26.4972 24.0002 26.4972C26.4854 26.4972 28.5002 24.4825 28.5002 21.9972C28.5002 19.5119 26.4854 17.4972 24.0002 17.4972ZM21.5002 21.9972C21.5002 20.6165 22.6194 19.4972 24.0002 19.4972C25.3809 19.4972 26.5002 20.6165 26.5002 21.9972C26.5002 23.3779 25.3809 24.4972 24.0002 24.4972C22.6194 24.4972 21.5002 23.3779 21.5002 21.9972Z" fill="#203686"/>
<path fill-rule="evenodd" clip-rule="evenodd" d="M19.8094 15.5892C22.3471 13.8974 25.6532 13.8974 28.1909 15.5892C31.6218 17.8764 32.585 22.4922 30.3553 25.9607L26.5237 31.9209C25.3428 33.7579 22.6575 33.7579 21.4766 31.9209L17.6451 25.9607C15.4153 22.4922 16.3785 17.8764 19.8094 15.5892ZM20.9188 17.2533C22.7847 16.0093 25.2156 16.0093 27.0815 17.2533C29.6042 18.935 30.3124 22.3289 28.6729 24.8792L24.8413 30.8394C24.4477 31.4517 23.5526 31.4517 23.159 30.8394L19.3274 24.8792C17.6879 22.3289 18.3961 18.935 20.9188 17.2533Z" fill="#203686"/>
<path fill-rule="evenodd" clip-rule="evenodd" d="M24.0002 17.4972C21.5149 17.4972 19.5002 19.5119 19.5002 21.9972C19.5002 24.4825 21.5149 26.4972 24.0002 26.4972C26.4854 26.4972 28.5002 24.4825 28.5002 21.9972C28.5002 19.5119 26.4854 17.4972 24.0002 17.4972ZM21.5002 21.9972C21.5002 20.6165 22.6194 19.4972 24.0002 19.4972C25.3809 19.4972 26.5002 20.6165 26.5002 21.9972C26.5002 23.3779 25.3809 24.4972 24.0002 24.4972C22.6194 24.4972 21.5002 23.3779 21.5002 21.9972Z" stroke="white" stroke-width="0.2" stroke-linecap="round" stroke-linejoin="round"/>
<path fill-rule="evenodd" clip-rule="evenodd" d="M19.8094 15.5892C22.3471 13.8974 25.6532 13.8974 28.1909 15.5892C31.6218 17.8764 32.585 22.4922 30.3553 25.9607L26.5237 31.9209C25.3428 33.7579 22.6575 33.7579 21.4766 31.9209L17.6451 25.9607C15.4153 22.4922 16.3785 17.8764 19.8094 15.5892ZM20.9188 17.2533C22.7847 16.0093 25.2156 16.0093 27.0815 17.2533C29.6042 18.935 30.3124 22.3289 28.6729 24.8792L24.8413 30.8394C24.4477 31.4517 23.5526 31.4517 23.159 30.8394L19.3274 24.8792C17.6879 22.3289 18.3961 18.935 20.9188 17.2533Z" stroke="white" stroke-width="0.2" stroke-linecap="round" stroke-linejoin="round"/>
</svg>

<svg width="48" height="48" fill="none" xmlns="http://www.w3.org/2000/svg"><rect width="48" height="48" rx="24" fill="#F4F7FB"/><path fill-rule="evenodd" clip-rule="evenodd" d="M24 17.497a4.5 4.5 0 100 9 4.5 4.5 0 000-9zm-2.5 4.5a2.5 2.5 0 115 0 2.5 2.5 0 01-5 0z" fill="#203686"/><path fill-rule="evenodd" clip-rule="evenodd" d="M19.81 15.59a7.555 7.555 0 0110.545 10.37l-3.831 5.96c-1.181 1.838-3.867 1.838-5.047 0l-3.832-5.96a7.555 7.555 0 012.164-10.37zm1.109 1.663a5.555 5.555 0 017.754 7.626l-3.832 5.96a1 1 0 01-1.682 0l-3.832-5.96a5.555 5.555 0 011.592-7.626z" fill="#203686"/><path clip-rule="evenodd" d="M24 17.497a4.5 4.5 0 100 9 4.5 4.5 0 000-9zm-2.5 4.5a2.5 2.5 0 115 0 2.5 2.5 0 01-5 0z" stroke="#fff" stroke-width=".2" stroke-linecap="round" stroke-linejoin="round"/><path clip-rule="evenodd" d="M19.81 15.59a7.555 7.555 0 0110.545 10.37l-3.831 5.96c-1.181 1.838-3.867 1.838-5.047 0l-3.832-5.96a7.555 7.555 0 012.164-10.37zm1.109 1.663a5.555 5.555 0 017.754 7.626l-3.832 5.96a1 1 0 01-1.682 0l-3.832-5.96a5.555 5.555 0 011.592-7.626z" stroke="#fff" stroke-width=".2" stroke-linecap="round" stroke-linejoin="round"/></svg>
